X: 11
T: Flowers Of Red Hill, The
Z: JACKB
S: https://thesession.org/tunes/442#setting37807
R: reel
M: 4/4
L: 1/8
K: Ador
eA A2 eAfA|eA A2 eAdA|eA A2 e2 af|gedB GA (3Bcd|
eA A2 eAfA|eA A2 gAfA|eAfA gAfA|gedB GA (3Bcd||
ea a2 bgag|eaag ed (3Bcd|ea a2 bgag|edef gd (3Bcd|
ea a2 bgag|eaaf g3a|bg g2 aged|eaag ed (3Bcd||

%-------------------- TUNE SEPARATOR --------------------%

